src/assets/toast/loading.svg

<svg fill="none" height="36" viewBox="0 0 36 36" width="36" xmlns="http://www.w3.org/2000/svg" xmlns:xlink="http://www.w3.org/1999/xlink"><linearGradient id="a" gradientUnits="userSpaceOnUse" x1="29.6426" x2="-11.6164" y1="-31.3333" y2="-24.6712"><stop offset="0" stop-color="#d0d0ff"/><stop offset=".303907" stop-color="#a996f7"/><stop offset=".505226" stop-color="#7280fe"/><stop offset="1" stop-color="#d3d6fe"/></linearGradient><clipPath id="b"><rect height="36" rx="18" width="36"/></clipPath><g clip-path="url(#b)"><path d="m34.0425 15.7464c.9844-.1383 1.6793-1.0517 1.4435-2.0174-.6413-2.6252-1.8675-5.08031-3.596-7.17751-2.1114-2.56162-4.89-4.48948-8.0287-5.570444-3.1386-1.0809605-6.5151-1.27291-9.7561-.554627-3.2409.718281-6.22014 2.318821-8.60821 4.624651-2.38807 2.30584-4.09198 5.22713-4.923355 8.44093-.831371 3.2138-.757814 6.595.212538 9.7696.970347 3.1746 2.799697 6.019 5.285787 8.2188 2.03536 1.801 4.44604 3.1124 7.04714 3.8452.9568.2696 1.8941-.3929 2.0668-1.3719s-.4861-1.9017-1.4359-2.1951c-1.9489-.6021-3.75457-1.6135-5.29243-2.9743-1.98887-1.7598-3.45235-4.0354-4.22863-6.575-.77628-2.5397-.83513-5.2446-.17003-7.8157.66509-2.571 2.02822-4.90807 3.93868-6.75274s4.29381-3.1251 6.88661-3.69973c2.5928-.57462 5.2939-.42106 7.8049.44371 2.5109.86476 4.7338 2.40706 6.4229 4.45635 1.306 1.58461 2.2536 3.42461 2.787 5.39341.2599.9595 1.159 1.6501 2.1435 1.5118z" fill="#b1b5c4"/><path d="m34.2 18c.9941 0 1.8093.8079 1.7101 1.797-.1753 1.7473-.6058 3.4629-1.2803 5.0913-.9046 2.1839-2.2304 4.1682-3.9019 5.8396-1.6714 1.6715-3.6557 2.9973-5.8396 3.9019-1.6284.6745-3.344 1.105-5.0913 1.2803-.9891.0992-1.797-.716-1.797-1.7101s.809-1.7884 1.7953-1.9124c1.2742-.1601 2.5239-.4902 3.7153-.9837 1.7471-.7237 3.3346-1.7844 4.6717-3.1216 1.3372-1.3371 2.3979-2.9246 3.1216-4.6717.4935-1.1914.8236-2.4411.9837-3.7153.124-.9863.9183-1.7953 1.9124-1.7953z" fill="url(#a)"/></g></svg>

<svg width="36" height="36" viewBox="0 0 36 36" fill="none" xmlns="http://www.w3.org/2000/svg">
    <g clip-path="url(#clip0_7529_17733)">
        <path d="M34.0425 15.7464C35.0269 15.6081 35.7218 14.6947 35.486 13.729C34.8447 11.1038 33.6185 8.64869 31.89 6.55149C29.7786 3.98987 27 2.06201 23.8613 0.981046C20.7227 -0.0999145 17.3462 -0.291864 14.1052 0.426419C10.8643 1.1447 7.88506 2.74524 5.49699 5.05107C3.10892 7.35691 1.40501 10.2782 0.573635 13.492C-0.257736 16.7058 -0.184179 20.087 0.786173 23.2616C1.75652 26.4362 3.58587 29.2806 6.07196 31.4804C8.10732 33.2814 10.518 34.5928 13.1191 35.3256C14.0759 35.5952 15.0132 34.9327 15.1859 33.9537C15.3586 32.9747 14.6998 32.052 13.75 31.7586C11.8011 31.1565 9.99543 30.1451 8.45757 28.7843C6.4687 27.0245 5.00522 24.7489 4.22894 22.2093C3.45266 19.6696 3.39381 16.9647 4.05891 14.3936C4.724 11.8226 6.08713 9.48553 7.99759 7.64086C9.90805 5.79619 12.2914 4.51576 14.8842 3.94113C17.477 3.36651 20.1781 3.52007 22.6891 4.38484C25.2 5.2496 27.4229 6.7919 29.112 8.84119C30.418 10.4258 31.3656 12.2658 31.899 14.2346C32.1589 15.1941 33.058 15.8847 34.0425 15.7464Z" fill="#B1B5C4"/>
        <path d="M34.2 18C35.1941 18 36.0093 18.8079 35.9101 19.797C35.7348 21.5443 35.3043 23.2599 34.6298 24.8883C33.7252 27.0722 32.3994 29.0565 30.7279 30.7279C29.0565 32.3994 27.0722 33.7252 24.8883 34.6298C23.2599 35.3043 21.5443 35.7348 19.797 35.9101C18.8079 36.0093 18 35.1941 18 34.2C18 33.2059 18.809 32.4116 19.7953 32.2876C21.0695 32.1275 22.3192 31.7974 23.5106 31.3039C25.2577 30.5802 26.8452 29.5195 28.1823 28.1823C29.5195 26.8452 30.5802 25.2577 31.3039 23.5106C31.7974 22.3192 32.1275 21.0695 32.2876 19.7953C32.4116 18.809 33.2059 18 34.2 18Z" fill="url(#paint0_linear_7529_17733)"/>
    </g>
    <defs>
        <linearGradient id="paint0_linear_7529_17733" x1="29.6426" y1="-31.3333" x2="-11.6164" y2="-24.6712" gradientUnits="userSpaceOnUse">
            <stop stop-color="#D0D0FF"/>
            <stop offset="0.303907" stop-color="#A996F7"/>
            <stop offset="0.505226" stop-color="#7280FE"/>
            <stop offset="1" stop-color="#D3D6FE"/>
        </linearGradient>
        <clipPath id="clip0_7529_17733">
            <rect width="36" height="36" rx="18" fill="white"/>
        </clipPath>
    </defs>
</svg>
